X:86
%%etbk:tnset id:30,pos:2,rep:3x,ant:
%%etbk:wsite http://www.thesession.org/tunes/display/806
%%etbk:pldat 2013-10-21T18:10,2013-08-28T17:45,2012-08-23T01:55,2012-08-22T13:45,2012-07-06T16:30
T: Flagstone Of Memories
Z: Piano Box Version by Martin Fleischmann
H: Created 2013-02-19 /  Last Modified 2013-08-28
M: 4/4
L: 1/8
R: reel
K: Gmaj
|: "G"!5!B3B BA!3!G!4!A | !5!B!1!D !3!(3D!2!D!1!D !2!E!3!GG!4!A | !5!B!1!D !3!(3D!2!D!1!D !2!E!3!GG!4!A | !3!B!5!dd!3!B "D"!2!A2 GA |
"G"!5!B3B BA!3!G!4!A | !5!B!1!D !3!(3D!2!D!1!D !2!E!3!GG!4!A | !1!B!2!d d2 !3!e!5!gg!3!e | "D"!2!d!1!B!2!AB "G"!1!G4 :||
|: "G"!5!g3e "D"!4!f3d | "em"!3!e{g}eef !3!e!2!d!1!B!1!A | !1!B!2!def !5!gfg!2!d | !1!B!2!def !5!g!2!d!1!B!2!d |
"G"!5!g3e "D"!4!f3d | "em"!3!e{g}eef !3!e!2!d!1!B!1!A | !1!B!2!def !5!gfg!3!e | "D"!2!d!1!B!2!AB "G"!1!G4 :||


